X: 26377
T: Merry Blacksmith, The
R: reel
M: 4/4
K: Dmajor
|:d2dA BAFA-|ABdA BAFA-|ABde f2ed|Beed egfe|
d2dA BAFA-|ABdA BAFA-|ABde fdec|dBAG FD D2:|
|:a2ag f2 fe|d2dA BAFA-|ABde f2ed|Beed egfg|
abag fgfe|d2dA BAFA-|ABde fdec|dBAG FD D2:|

